X: 36386
T: Sean Reid's
R: reel
M: 4/4
K: Gmajor
|:DG~G2 BG~G2|cA~A2 dcAF|DG~G2 ABBd|cAdc AGGF|
DG~G2 BG~G2|cA~A2 dcAd|~g3a gfde|fdcA AGG2:|
|:~g3a gfde|f2fg fdcA|dg~g2 gfde|fdcA AGBd|
~g3a gfde|f2ge fdcA|dg~g2 b2ag|fdcA AGG2:|

